X: 243
T: The Mountaineers' march
C: anon.
O: Ireland
B: Francis O'Neill: "The Dance Music of Ireland" (1907) no. 243
R: Double jig
Z: Transcribed by Frank Nordberg - http://www.musicaviva.com
F: http://www.musicaviva.com/abc/tunes/ireland/oneill-1001/oneill-1001-024
3.abc
M: 6/8
L: 1/8
K: G
(3D/E/F/|GAG GAB|ABA ABd|edd gdB|ABA ABd|GAG GAB|ABA ABd|edd gdB|cAF G2:|


